!!!COM: Vivaldi, Antonio Lucio
!!!CDT: 1678/03/04-1741/08/28
!!!OPR: 12 sonatas for two violins and basso continuo
!!!OTL: Sonata in E minor, op. @{OPS}, no. @{ONM} (@{SCT})
!!!OPS: 1
!!!ONM: 2
!!!OMV: 4. Gavotta
!!!SCT: RV 67
!!!SCA: Antonio Vivaldi: Thematisch-systematisches Verzeichnis seiner Werke (Ryom-Verzeichnis)
!!!OMD: Allegro
!!!key: e
**kern	**fb	**kern	**kern
*part4	*part4	*part2	*part1
*staff4	*	*staff2	*staff1
*ICstr&ICklav&ICstr	*	*ICstr	*ICstr
*Icello&Icemba&Icello	*	*Ivioln	*Ivioln
*	*	*I#2	*I#1
*I"Violoncello\nContinuo	*	*I"Violin 2	*I"Violoncello\nContinuo
*I'bc	*	*I'v2	*I'v1
*>[A,A,B,B]	*>[A,A,B,B]	*>[A,A,B,B]	*>[A,A,B,B]
*>norep[A,B]	*>norep[A,B]	*>norep[A,B]	*>norep[A,B]
*>A	*>A	*>A	*>A
*clefF4	*	*clefG2	*clefG2
*k[f#]	*	*k[f#]	*k[f#]
*e:	*	*e:	*e:
*M4/4	*	*M4/4	*M4/4
*met(c)	*	*met(c)	*met(c)
*MM104	*	*MM104	*MM104
8e\	.	8r	8b\
=1	=1	=1	=1
8e\L	.	8r	4ee\
8E\	.	8b\	.
8E\	.	4ee\	8r
8e\J	.	.	8b\
8d#X\L	6	8r	4ff#y\
8D#X\	.	8b\	.
8D#y\	.	4ff#y\	8r
8d#y\J	.	.	8b\
=2	=2	=2	=2
8e\L	.	8ee\L	8gg\L
8E\	.	8ff#y\J	8aa\J
8E\	.	8gg\L	8bb\L
8e\J	.	16ff#y\L	16aa\L
.	.	16ee\JJ	16gg\JJ
8B\L	#	2dd#X\	16ff#y\LL
.	.	.	16ee\
8BB\	.	.	16dd#X\
.	.	.	16cc#X\JJ
8BB\	.	.	8b\L
8B\J	.	.	8b\J
=3	=3	=3	=3
8G/L	6	8r	4ee\
8GG/	.	8b\	.
8GG/	.	4ee\	8r
8E/J	.	.	8b\
8D#X/L	6	8r	4ff#y\
8DD#X/	.	8b\	.
8DD#X/	.	4ff#y\	8r
8D#y/J	.	.	8b\
=4	=4	=4	=4
8E/L	.	8r	16gg\LL
.	.	.	16ff#y\
8EE/	.	4b\	16ee\
.	.	.	16dd\JJ
8F#y/	5#| 4	.	4cc#X\t
8FF#y/J	#	8a#X/	.
4.BB/	.	4.b\	4.b\
!!LO:LB:g=original
=:|!|:	=:|!|:	=:|!|:	=:|!|:
*>B	*>B	*>B	*>B
8dn\	6	8r	8b\
=5	=5	=5	=5
8d\L	4#| 2	8r	4gg#X\
8D\	.	8ee\	.
8D\	.	4b\	8r
8d\J	.	.	8gg#y\
8c\L	6	8r	4aa\
8C\	.	8ee\	.
8C\	.	4a/	8r
8c\J	.	.	8a/
=6	=6	=6	=6
8c\L	4 2	8r	4ff#y\
8C\	.	8dd\	.
8C\	.	4a/	8r
8c\J	.	.	8ff#y\
8B\L	6	8r	4ggn\
8BB\	.	8dd\	.
8BB\	.	4g/	8r
8B\J	.	.	8b\
=7	=7	=7	=7
8G/L	6	8r	4ee\
8GG/	.	8b\	.
8GG/	.	4ee\	8r
8E/J	.	.	8b\
8D#X/L	6	8r	4ff#y\
8DD#y/	.	8b\	.
8DD#y/	.	4ff#y\	8r
8D#y/J	.	.	8b\
=8	=8	=8	=8
8E\L	.	8b/L	8gg\L
8A\	.	16a/L	16ff#y\L
.	.	16g/JJ	16ee\JJ
8B\	#	4f#y/	8.dd#X\Lt
8BB\J	.	.	.
.	.	.	16ee\Jk
4.E\	.	4.e/	4.ee\
=:|!	=:|!	=:|!	=:|!
*-	*-	*-	*-
!!!SMS: RV 67 / Estienne Roger (No. 363), Amsterdam [facs.]
!!!ENC: Fran Bennion   rev. 05/12/21 E Correia
!!!END: 2004/09/27
!!!ONB: Converted from MuseData with musedata2hum on Sat May 11 12:01:53 2024
!!!YEM: (C) 2004, 2019 Center for Computer Assisted Research in the Humanities
!!!system-decoration: [(s1,s2,s3)]
!!!URL-info: https://wiki.ccarh.org/wiki/MuseData:_Antonio_Vivaldi#Op._1:_Suonate_da_camera_a_tr.C3.A8.2C_due_violini_e_violone_o_cembalo Information about Vivaldi Op. 1 on the CCARH wiki
!!!URL-pdf: https://pdf.musedata.org/vivaldi-op01-no02.pdf#page=6 MuseData edition
!!!URL-pdf: https://s9.imslp.org/files/imglnks/usimg/1/10/IMSLP300295-PMLP10351-Vivaldi_-_Suonate_da_Camera_a_Tre,_Opera_Prima_-Violino_Primo-.pdf#page=4 Amsterdam: Estienne Roger, n.d.(ca.1723). Plate 363.
!!!URL-pdf: https://s9.imslp.org/files/imglnks/usimg/d/d5/IMSLP280400-PMLP10351-Vivaldi_Sonatas_Op_1_-_Violino_Secondo.pdf#page=4 Violino secondo part, Amsterdam: Estienne Roger, n.d.(ca.1723). Plate 363.
!!!URL-pdf: https://s9.imslp.org/files/imglnks/usimg/8/89/IMSLP280401-PMLP10351-Vivaldi_Sonatas_Op_1_-_Organo_e_Violoncello.pdf#page=4 Organo e Violoncello parts, Amsterdam: Estienne Roger, n.d.(ca.1723). Plate 363.
!!!URL-youtube: https://www.youtube.com/watch?v=P5HHPe_W6Uo&t=5048s L'Arte dell'Arco
!!!title: @{OTL}, mov. @{OMV}
!!!filter-vcross: vcross
!!!EEV: 2024/05/11
!!!source-file: https://bitbucket.org/musedata/vivaldi/src/master/roger/op1/no02/stage2/04/01
!!!source-file: https://bitbucket.org/musedata/vivaldi/src/master/roger/op1/no02/stage2/04/02
!!!source-file: https://bitbucket.org/musedata/vivaldi/src/master/roger/op1/no02/stage2/04/03
!!!source-file: https://bitbucket.org/musedata/vivaldi/src/master/roger/op1/no02/stage2/04/04
